public/img/free_icon_1.svg

<svg width="32px" height="32px" viewBox="0 0 32 32" version="1.1" xmlns="http://www.w3.org/2000/svg" xmlns:xlink="http://www.w3.org/1999/xlink" xmlns:sketch="http://www.bohemiancoding.com/sketch/ns">
    <!-- Generator: Sketch 3.0.3 (7891) - http://www.bohemiancoding.com/sketch -->
    <title>icon 39 stars</title>
    <desc>Created with Sketch.</desc>
    <defs></defs>
    <g id="Page-1" stroke="none" stroke-width="1" fill="none" fill-rule="evenodd" sketch:type="MSPage">
        <g id="icon-39-stars" sketch:type="MSArtboardGroup" fill="#000000">
            <path d="M22.7142857,9.23809524 L21.5,6 L20.2857143,9.23809524 L18,10 L20.2857143,10.7619048 L21.5,14 L22.7142857,10.7619048 L25,10 L22.7142857,9.23809524 L22.7142857,9.23809524 Z M20.7142857,21.2380952 L19.5,18 L18.2857143,21.2380952 L16,22 L18.2857143,22.7619048 L19.5,26 L20.7142857,22.7619048 L23,22 L20.7142857,21.2380952 L20.7142857,21.2380952 L20.7142857,21.2380952 Z M13.4594595,13.4864865 L11.5,8 L9.54054054,13.4864865 L5,15 L9.54054054,16.5135135 L11.5,22 L13.4594595,16.5135135 L18,15 L13.4594595,13.4864865 L13.4594595,13.4864865 L13.4594595,13.4864865 Z" id="stars" sketch:type="MSShapeGroup" style="fill: rgb(18, 80, 102);"></path>
        </g>
    </g>
</svg>

<svg xmlns="http://www.w3.org/2000/svg" width="32" height="32"><path fill="#000" fill-rule="evenodd" d="M22.714 9.238 21.5 6l-1.214 3.238L18 10l2.286.762L21.5 14l1.214-3.238L25 10zm-2 12L19.5 18l-1.214 3.238L16 22l2.286.762L19.5 26l1.214-3.238L23 22zm-7.255-7.752L11.5 8l-1.96 5.486L5 15l4.54 1.514L11.5 22l1.96-5.486L18 15z" style="fill:#125066"/></svg>
